;FLAVOR:UltiGCode
;TIME:3654
;MATERIAL:3221
;MATERIAL2:0

;Layer count: 108
;LAYER:0
M107
G0 F9000 X93.716 Y136.673 Z0.300
;TYPE:SKIRT
G1 F1200 X103.010 Y135.449 E1.12491
G1 X112.304 Y136.673 E2.24982
G1 X112.304 Y185.487 E8.10750
G1 X103.010 Y186.711 E9.23241
G1 X93.716 Y185.487 E10.35732
G1 X93.716 Y136.673 E16.21500
G0 F9000 X94.116 Y137.024
G1 F1200 X103.010 Y135.852 E17.29151
G1 X111.904 Y137.024 E18.36801
G1 X111.904 Y185.136 E24.14145
G1 X103.010 Y186.308 E25.21796
G1 X94.116 Y185.136 E26.29447
G1 X94.116 Y137.024 E32.06791
G10
G0 F9000 X97.916 Y140.356
;TYPE:WALL-INNER
G11
G1 F1200 X103.010 Y139.685 E32.68447
G1 X108.104 Y140.356 E33.30103
G1 X108.104 Y181.804 E38.27479
G1 X103.010 Y182.475 E38.89135
G1 X97.916 Y181.804 E39.50791
G1 X97.916 Y140.356 E44.48167
G0 F9000 X101.186 Y141.526
G1 F1200 X100.975 Y142.036 E44.54790
G1 X100.905 Y142.580 E44.61372
G1 X100.975 Y143.126 E44.67977
G1 X101.186 Y143.633 E44.74567
G1 X101.522 Y144.070 E44.81182
G1 X101.957 Y144.404 E44.87763
G1 X102.466 Y144.615 E44.94375
G1 X103.010 Y144.685 E45.00957
G1 X103.554 Y144.615 E45.07539
G1 X104.062 Y144.404 E45.14140
G1 X104.500 Y144.070 E45.20750
G1 X104.834 Y143.632 E45.27360
G1 X105.045 Y143.126 E45.33938
G1 X105.115 Y142.580 E45.40544
G1 X105.045 Y142.036 E45.47126
G1 X104.834 Y141.527 E45.53738
G1 X104.499 Y141.091 E45.60336
G1 X104.062 Y140.758 E45.66929
G1 X103.555 Y140.548 E45.73514
G1 X103.010 Y140.475 E45.80112
G1 X102.465 Y140.548 E45.86711
G1 X101.957 Y140.758 E45.93307
G1 X101.523 Y141.091 E45.99872
G1 X101.186 Y141.526 E46.06475
G0 F9000 X100.977 Y143.125
G0 X102.464 Y152.798
G1 F1200 X101.957 Y153.009 E46.13065
G1 X101.523 Y153.341 E46.19622
G1 X101.186 Y153.776 E46.26225
G1 X100.975 Y154.286 E46.32848
G1 X100.905 Y154.830 E46.39430
G1 X100.975 Y155.374 E46.46012
G1 X101.186 Y155.883 E46.52624
G1 X101.522 Y156.320 E46.59239
G1 X101.957 Y156.654 E46.65820
G1 X102.466 Y156.865 E46.72432
G1 X103.010 Y156.935 E46.79014
G1 X103.554 Y156.865 E46.85595
G1 X104.062 Y156.654 E46.92196
G1 X104.500 Y156.320 E46.98806
G1 X104.834 Y155.882 E47.05416
G1 X105.045 Y155.374 E47.12017
G1 X105.115 Y154.830 E47.18599
G1 X105.045 Y154.286 E47.25181
G1 X104.834 Y153.777 E47.31793
G1 X104.499 Y153.341 E47.38391
G1 X104.062 Y153.009 E47.44976
G1 X103.556 Y152.798 E47.51555
G1 X103.010 Y152.725 E47.58165
G1 X102.464 Y152.798 E47.64776
G0 F9000 X101.189 Y153.777
G0 X100.977 Y155.373
G0 X101.958 Y156.652
G0 X103.010 Y157.975
G1 F1200 X102.207 Y158.082 E47.74497
G1 X101.457 Y158.392 E47.84235
G1 X100.814 Y158.886 E47.93966
G1 X100.405 Y159.419 E48.02028
G1 X100.322 Y159.526 E48.03653
G1 X100.062 Y160.154 E48.11809
G1 X100.011 Y160.278 E48.13418
G1 X99.924 Y160.938 E48.21407
G1 X99.904 Y161.075 E48.23068
G1 X99.994 Y161.755 E48.31299
G1 X100.013 Y161.889 E48.32923
G1 X100.270 Y162.507 E48.40955
G1 X100.321 Y162.631 E48.42564
G1 X100.732 Y163.170 E48.50698
G1 X100.815 Y163.276 E48.52313
G1 X101.457 Y163.770 E48.62034
G1 X102.208 Y164.081 E48.71788
G1 X103.010 Y164.185 E48.81493
G1 X103.812 Y164.081 E48.91197
G1 X104.563 Y163.770 E49.00952
G1 X105.207 Y163.275 E49.10699
G1 X105.615 Y162.741 E49.18763
G1 X105.697 Y162.634 E49.20381
G1 X105.957 Y162.008 E49.28515
G1 X106.009 Y161.884 E49.30128
G1 X106.096 Y161.221 E49.38153
G1 X106.116 Y161.084 E49.39814
G1 X106.026 Y160.405 E49.48033
G1 X106.007 Y160.273 E49.49634
G1 X105.749 Y159.651 E49.57714
G1 X105.699 Y159.528 E49.59307
G1 X105.287 Y158.992 E49.67420
G1 X105.205 Y158.886 E49.69028
G1 X104.563 Y158.392 E49.78749
G1 X103.813 Y158.082 E49.88487
G1 X103.010 Y157.975 E49.98209
G0 F9000 X103.010 Y165.225
G1 F1200 X102.464 Y165.298 E50.04819
G1 X101.957 Y165.509 E50.11409
G1 X101.523 Y165.841 E50.17966
G1 X101.186 Y166.276 E50.24569
G1 X100.975 Y166.786 E50.31192
G1 X100.905 Y167.330 E50.37774
G1 X100.975 Y167.874 E50.44356
G1 X101.186 Y168.383 E50.50968
G1 X101.522 Y168.820 E50.57583
G1 X101.957 Y169.154 E50.64164
G1 X102.466 Y169.365 E50.70776
G1 X103.010 Y169.435 E50.77358
G1 X103.554 Y169.365 E50.83940
G1 X104.062 Y169.154 E50.90541
G1 X104.500 Y168.820 E50.97150
G1 X104.834 Y168.382 E51.03760
G1 X105.045 Y167.874 E51.10361
G1 X105.115 Y167.330 E51.16943
G1 X105.045 Y166.786 E51.23525
G1 X104.834 Y166.277 E51.30137
G1 X104.499 Y165.841 E51.36735
G1 X104.062 Y165.509 E51.43320
G1 X103.556 Y165.298 E51.49899
G1 X103.010 Y165.225 E51.56510
G0 F9000 X103.010 Y177.475
G1 F1200 X102.465 Y177.548 E51.63108
G1 X101.957 Y177.758 E51.69704
G1 X101.523 Y178.091 E51.76269
G1 X101.186 Y178.526 E51.82872
G1 X100.975 Y179.036 E51.89495
G1 X100.905 Y179.580 E51.96077
G1 X100.975 Y180.126 E52.02682
G1 X101.186 Y180.633 E52.09272
G1 X101.522 Y181.070 E52.15887
G1 X101.957 Y181.404 E52.22468
G1 X102.466 Y181.615 E52.29080
G1 X103.010 Y181.685 E52.35662
G1 X103.554 Y181.615 E52.42244
G1 X104.062 Y181.404 E52.48845
G1 X104.500 Y181.070 E52.55455
G1 X104.834 Y180.632 E52.62065
G1 X105.045 Y180.126 E52.68643
G1 X105.115 Y179.580 E52.75249
G1 X105.045 Y179.036 E52.81831
G1 X104.834 Y178.527 E52.88443
G1 X104.499 Y178.091 E52.95041
G1 X104.062 Y177.758 E53.01634
G1 X103.555 Y177.548 E53.08219
G1 X103.010 Y177.475 E53.14818
G0 F9000 X103.010 Y177.878
;TYPE:WALL-OUTER
G1 F1200 X102.570 Y177.937 E53.20145
G1 X102.159 Y178.107 E53.25482
G1 X101.808 Y178.377 E53.30796
G1 X101.535 Y178.729 E53.36142
G1 X101.365 Y179.140 E53.41479
G1 X101.308 Y179.580 E53.46803
G1 X101.365 Y180.022 E53.52151
G1 X101.535 Y180.431 E53.57466
G1 X101.807 Y180.785 E53.62823
G1 X102.159 Y181.055 E53.68147
G1 X102.570 Y181.225 E53.73484
G1 X103.010 Y181.282 E53.78808
G1 X103.450 Y181.225 E53.84132
G1 X103.861 Y181.055 E53.89469
G1 X104.215 Y180.785 E53.94812
G1 X104.485 Y180.431 E54.00154
G1 X104.655 Y180.022 E54.05470
G1 X104.712 Y179.580 E54.10817
G1 X104.655 Y179.140 E54.16142
G1 X104.485 Y178.729 E54.21479
G1 X104.214 Y178.377 E54.26810
G1 X103.861 Y178.107 E54.32143
G1 X103.450 Y177.937 E54.37480
G1 X103.010 Y177.878 E54.42807
G0 F9000 X103.050 Y177.581
G0 X104.498 Y178.093
G0 X105.113 Y179.580
G0 X104.498 Y181.068
G0 X103.014 Y182.576
G0 X103.010 Y182.879
G1 F1200 X97.516 Y182.155 E55.09305
G1 X97.516 Y140.005 E60.15105
G1 X103.010 Y139.281 E60.81603
G1 X108.504 Y140.005 E61.48101
G1 X108.504 Y182.155 E66.53901
G1 X103.010 Y182.879 E67.20399
G10
G0 F9000 X103.010 Y169.032
G11
G1 F1200 X103.450 Y168.975 E67.25723
G1 X103.861 Y168.805 E67.31061
G1 X104.215 Y168.535 E67.36403
G1 X104.485 Y168.181 E67.41746
G1 X104.655 Y167.770 E67.47083
G1 X104.712 Y167.330 E67.52407
G1 X104.655 Y166.890 E67.57731
G1 X104.485 Y166.479 E67.63068
G1 X104.214 Y166.127 E67.68399
G1 X103.861 Y165.858 E67.73725
G1 X103.451 Y165.687 E67.79056
G1 X103.010 Y165.628 E67.84395
G1 X102.569 Y165.687 E67.89734
G1 X102.159 Y165.858 E67.95065
G1 X101.808 Y166.127 E68.00371
G1 X101.535 Y166.479 E68.05717
G1 X101.365 Y166.890 E68.11054
G1 X101.308 Y167.330 E68.16378
G1 X101.365 Y167.770 E68.21702
G1 X101.535 Y168.181 E68.27040
G1 X101.807 Y168.535 E68.32397
G1 X102.159 Y168.805 E68.37720
G1 X102.570 Y168.975 E68.43058
G1 X103.010 Y169.032 E68.48382
G0 F9000 X102.972 Y169.328
G0 X101.958 Y169.152
G0 X100.977 Y167.873
G0 X101.189 Y166.277
G0 X102.465 Y165.300
G0 X102.972 Y164.078
G0 X103.010 Y163.782
G1 F1200 X103.708 Y163.691 E68.56829
G1 X104.361 Y163.421 E68.65308
G1 X104.921 Y162.990 E68.73788
G1 X105.298 Y162.496 E68.81245
G1 X105.348 Y162.431 E68.82229
G1 X105.619 Y161.780 E68.90691
G1 X105.700 Y161.164 E68.98147
G1 X105.712 Y161.081 E68.99153
G1 X105.630 Y160.460 E69.06670
G1 X105.618 Y160.380 E69.07640
G1 X105.349 Y159.729 E69.16093
G1 X104.921 Y159.171 E69.24532
G1 X104.361 Y158.741 E69.33004
G1 X103.708 Y158.471 E69.41484
G1 X103.010 Y158.378 E69.49934
G1 X102.312 Y158.471 E69.58384
G1 X101.659 Y158.741 E69.66863
G1 X101.099 Y159.171 E69.75336
G1 X100.671 Y159.729 E69.83775
G1 X100.401 Y160.382 E69.92254
G1 X100.320 Y160.997 E69.99698
G1 X100.308 Y161.078 E70.00680
G1 X100.390 Y161.700 E70.08209
G1 X100.402 Y161.782 E70.09204
G1 X100.671 Y162.431 E70.17634
G1 X101.049 Y162.926 E70.25108
G1 X101.100 Y162.991 E70.26099
G1 X101.659 Y163.421 E70.34562
G1 X102.312 Y163.691 E70.43042
G1 X103.010 Y163.782 E70.51489
G0 F9000 X102.972 Y164.078
G0 X101.458 Y163.768
G0 X100.271 Y162.507
G0 X100.013 Y160.279
G0 X100.816 Y158.888
G0 X102.208 Y158.083
G0 X102.972 Y156.828
G0 X103.010 Y156.532
G1 F1200 X103.450 Y156.475 E70.56813
G1 X103.861 Y156.305 E70.62150
G1 X104.215 Y156.035 E70.67493
G1 X104.485 Y155.681 E70.72835
G1 X104.655 Y155.270 E70.78172
G1 X104.712 Y154.830 E70.83497
G1 X104.655 Y154.390 E70.88821
G1 X104.485 Y153.979 E70.94158
G1 X104.214 Y153.627 E70.99489
G1 X103.861 Y153.358 E71.04815
G1 X103.451 Y153.187 E71.10145
G1 X103.010 Y153.128 E71.15484
G1 X102.569 Y153.187 E71.20824
G1 X102.159 Y153.358 E71.26154
G1 X101.808 Y153.627 E71.31461
G1 X101.535 Y153.979 E71.36807
G1 X101.365 Y154.390 E71.42144
G1 X101.308 Y154.830 E71.47468
G1 X101.365 Y155.270 E71.52792
G1 X101.535 Y155.681 E71.58129
G1 X101.807 Y156.035 E71.63486
G1 X102.159 Y156.305 E71.68810
G1 X102.570 Y156.475 E71.74147
G1 X103.010 Y156.532 E71.79471
G0 F9000 X102.972 Y156.828
G0 X101.958 Y156.652
G0 X100.977 Y155.373
G0 X101.189 Y153.777
G0 X102.465 Y152.800
G0 X102.972 Y144.578
G0 X103.010 Y144.282
G1 F1200 X103.450 Y144.225 E71.84795
G1 X103.861 Y144.055 E71.90133
G1 X104.215 Y143.785 E71.95475
G1 X104.485 Y143.431 E72.00818
G1 X104.655 Y143.022 E72.06133
G1 X104.712 Y142.580 E72.11481
G1 X104.655 Y142.140 E72.16805
G1 X104.485 Y141.729 E72.22142
G1 X104.214 Y141.377 E72.27473
G1 X103.861 Y141.107 E72.32806
G1 X103.450 Y140.937 E72.38143
G1 X103.010 Y140.878 E72.43471
G1 X102.570 Y140.937 E72.48798
G1 X102.159 Y141.107 E72.54135
G1 X101.808 Y141.377 E72.59449
G1 X101.535 Y141.729 E72.64795
G1 X101.365 Y142.140 E72.70132
G1 X101.308 Y142.580 E72.75456
G1 X101.365 Y143.022 E72.80804
G1 X101.535 Y143.431 E72.86119
G1 X101.807 Y143.785 E72.91476
G1 X102.159 Y144.055 E72.96800
G1 X102.570 Y144.225 E73.02137
G1 X103.010 Y144.282 E73.07461
G0 F9000 X103.220 Y144.798
;TYPE:SKIN
G1 F900 X107.964 Y149.542 E73.87969
G0 F9000 X107.964 Y150.108
G1 F900 X102.633 Y144.777 E74.78439
G0 F9000 X103.696 Y144.708
G1 F900 X107.964 Y148.976 E75.50870
G0 F9000 X107.964 Y148.411
G1 F900 X104.095 Y144.541 E76.16537
G0 F9000 X104.423 Y144.304
G1 F900 X107.964 Y147.845 E76.76630
G0 F9000 X107.964 Y147.279
G1 F900 X104.709 Y144.024 E77.31869
G0 F9000 X104.955 Y143.704
G1 F900 X107.964 Y146.714 E77.82942
G0 F9000 X107.964 Y146.148
G1 F900 X105.122 Y143.305 E78.31181
G0 F9000 X105.221 Y142.839
G1 F900 X107.964 Y145.582 E78.77731
G0 F9000 X107.964 Y145.016
G1 F900 X105.215 Y142.267 E79.24383
G0 F9000 X104.910 Y141.397
G1 F900 X107.964 Y144.451 E79.76211
G0 F9000 X107.964 Y143.885
G1 F900 X104.039 Y139.960 E80.42821
G0 F9000 X103.388 Y139.874
G1 F900 X104.197 Y140.683 E80.56550
G0 F9000 X104.691 Y140.046
G1 F900 X107.964 Y143.319 E81.12095
G0 F9000 X107.964 Y142.754
G1 F900 X105.342 Y140.132 E81.56592
G0 F9000 X105.993 Y140.217
G1 F900 X107.964 Y142.188 E81.90041
G0 F9000 X107.964 Y141.622
G1 F900 X106.645 Y140.304 E82.12416
G0 F9000 X107.297 Y140.389
G1 F900 X107.964 Y141.057 E82.23744
G0 F9000 X103.321 Y140.374
G1 F900 X102.550 Y139.885 E82.32591
G1 X102.516 Y140.417 E82.40187
G1 X101.800 Y139.984 E82.50228
G0 F9000 X101.300 Y140.050
G1 F900 X101.886 Y140.635 E82.60165
G0 F9000 X101.565 Y140.881
G1 F900 X100.800 Y140.116 E82.73147
G0 F9000 X100.300 Y140.181
G1 F900 X101.286 Y141.167 E82.89880
G0 F9000 X101.046 Y141.493
G1 F900 X99.801 Y140.247 E83.11017
G0 F9000 X99.301 Y140.314
G1 F900 X100.881 Y141.893 E83.37822
G0 F9000 X100.791 Y142.369
G1 F900 X98.801 Y140.379 E83.71593
G0 F9000 X98.301 Y140.445
G1 F900 X100.812 Y142.956 E84.14207
G0 F9000 X101.297 Y144.006
G1 F900 X98.055 Y140.765 E84.69217
G0 F9000 X98.055 Y141.330
G1 F900 X107.964 Y151.239 E86.37378
G0 F9000 X107.964 Y151.805
G1 F900 X98.055 Y141.896 E88.05539
G0 F9000 X98.055 Y142.462
G1 F900 X107.964 Y152.370 E89.73692
G0 F9000 X107.964 Y152.936
G1 F900 X98.055 Y143.027 E91.41853
G0 F9000 X98.055 Y143.593
G1 F900 X107.964 Y153.502 E93.10015
G0 F9000 X107.964 Y154.067
G1 F900 X98.055 Y144.159 E94.78167
G0 F9000 X98.055 Y144.724
G1 F900 X107.964 Y154.633 E96.46329
G0 F9000 X107.964 Y155.199
G1 F900 X98.055 Y145.290 E98.14490
G0 F9000 X98.055 Y145.856
G1 F900 X107.964 Y155.765 E99.82651
G0 F9000 X107.964 Y156.330
G1 F900 X98.055 Y146.422 E101.50804
G0 F9000 X98.055 Y146.987
G1 F900 X103.824 Y152.756 E102.48707
G0 F9000 X103.096 Y152.593
G1 F900 X98.055 Y147.553 E103.34248
G0 F9000 X98.055 Y148.119
G1 F900 X102.576 Y152.639 E104.10963
G0 F9000 X102.147 Y152.776
G1 F900 X98.055 Y148.684 E104.80406
G0 F9000 X98.055 Y149.250
G1 F900 X101.775 Y152.969 E105.43528
G0 F9000 X101.454 Y153.215
G1 F900 X98.055 Y149.816 E106.01211
G0 F9000 X98.055 Y150.381
G1 F900 X101.201 Y153.527 E106.54601
G0 F9000 X100.990 Y153.881
G1 F900 X98.055 Y150.947 E107.04401
G0 F9000 X98.055 Y151.513
G1 F900 X100.833 Y154.290 E107.51537
G0 F9000 X100.769 Y154.792
G1 F900 X98.055 Y152.078 E107.97595
G0 F9000 X98.055 Y152.644
G1 F900 X100.849 Y155.438 E108.45011
G0 F9000 X102.401 Y156.990
G1 F900 X103.279 Y157.867 E108.59902
G0 F9000 X102.716 Y157.870
G1 F900 X98.055 Y153.210 E109.38994
G0 F9000 X98.055 Y153.775
G1 F900 X102.217 Y157.937 E110.09625
G0 F9000 X101.807 Y158.093
G1 F900 X98.055 Y154.341 E110.73299
G0 F9000 X98.055 Y154.907
G1 F900 X101.407 Y158.258 E111.30175
G0 F9000 X101.083 Y158.500
G1 F900 X98.055 Y155.472 E111.81562
G0 F9000 X98.055 Y156.038
G1 F900 X100.764 Y158.746 E112.27527
G0 F9000 X100.507 Y159.055
G1 F900 X98.055 Y156.604 E112.69130
G0 F9000 X98.055 Y157.170
G1 F900 X100.262 Y159.376 E113.06576
G0 F9000 X100.075 Y159.755
G1 F900 X98.055 Y157.735 E113.40856
G0 F9000 X98.055 Y158.301
G1 F900 X99.909 Y160.155 E113.72320
G0 F9000 X99.821 Y160.632
G1 F900 X98.055 Y158.867 E114.02281
G0 F9000 X98.055 Y159.432
G1 F900 X99.772 Y161.148 E114.31411
G0 F9000 X99.860 Y161.803
G1 F900 X98.055 Y159.998 E114.62043
G0 F9000 X98.055 Y160.564
G1 F900 X100.216 Y162.725 E114.98717
G0 F9000 X101.371 Y163.879
G1 F900 X102.625 Y165.133 E115.19998
G0 F9000 X102.186 Y165.260
G1 F900 X98.055 Y161.129 E115.90103
G0 F9000 X98.055 Y161.695
G1 F900 X101.805 Y165.445 E116.53743
G0 F9000 X101.486 Y165.691
G1 F900 X98.055 Y162.261 E117.11960
G0 F9000 X98.055 Y162.826
G1 F900 X101.225 Y165.996 E117.65757
G0 F9000 X101.005 Y166.342
G1 F900 X98.055 Y163.392 E118.15820
G0 F9000 X98.055 Y163.958
G1 F900 X100.840 Y166.742 E118.63075
G0 F9000 X100.775 Y167.243
G1 F900 X98.055 Y164.523 E119.09235
G0 F9000 X98.055 Y165.089
G1 F900 X100.833 Y167.867 E119.56379
G0 F9000 X102.473 Y169.506
G1 F900 X107.964 Y174.998 E120.49573
G0 F9000 X107.964 Y175.564
G1 F900 X98.055 Y165.655 E122.17734
G0 F9000 X98.055 Y166.221
G1 F900 X107.964 Y176.129 E123.85887
G0 F9000 X107.964 Y176.695
G1 F900 X98.055 Y166.786 E125.54048
G0 F9000 X98.055 Y167.352
G1 F900 X107.964 Y177.261 E127.22209
G0 F9000 X107.964 Y177.826
G1 F900 X98.055 Y167.918 E128.90362
G0 F9000 X98.055 Y168.483
G1 F900 X107.964 Y178.392 E130.58523
G0 F9000 X107.964 Y178.958
G1 F900 X98.055 Y169.049 E132.26685
G0 F9000 X98.055 Y169.615
G1 F900 X107.964 Y179.523 E133.94838
G0 F9000 X107.871 Y181.693
G1 F900 X105.181 Y179.003 E134.40488
G0 F9000 X105.247 Y179.635
G1 F900 X107.371 Y181.758 E134.76525
G0 F9000 X106.871 Y181.824
G1 F900 X105.183 Y180.136 E135.05172
G0 F9000 X105.023 Y180.542
G1 F900 X106.371 Y181.890 E135.28048
G0 F9000 X105.872 Y181.956
G1 F900 X104.809 Y180.894 E135.46079
G0 F9000 X104.554 Y181.204
G1 F900 X105.372 Y182.022 E135.59961
G0 F9000 X104.872 Y182.088
G1 F900 X104.233 Y181.449 E135.70805
G0 F9000 X103.859 Y181.640
G1 F900 X104.122 Y182.187 E135.79527
G1 X103.398 Y182.029 E135.87108
G1 X102.898 Y181.811 E135.93653
G0 F9000 X102.831 Y182.310
G1 F900 X102.162 Y181.640 E136.05015
G0 F9000 X102.180 Y182.224
G1 F900 X98.055 Y178.100 E136.75010
G0 F9000 X98.055 Y178.666
G1 F900 X101.528 Y182.138 E137.33941
G0 F9000 X100.877 Y182.053
G1 F900 X98.055 Y179.231 E137.81832
G0 F9000 X98.055 Y179.797
G1 F900 X100.225 Y181.966 E138.18649
